X:1
T:Title
L:1/8
M:4/4
I:linebreak $
K:D
V:1 treble nm="Voice"
V:1
 EFGB |"D" A3 B AGFA | defe dBAF | A2 A2 D4 | A3 B AFDF |1"G" GEED :|2"G" GEED"A" E3 A |: %7
"D" ABde fded |"G" Bcde fe"A" e2 |"D" ABde fded |"G" Bd"D"AF"A" EEFE :|"D" ABde fded | %12
"G" Bcde"D" fef^g | af"E"^ge"D" fefg | af"E"^ge"D" fedf |"A" ecAF E3 D |] %16
